svg/alarm_light_off_outline.svg

<svg xmlns="http://www.w3.org/2000/svg" viewBox="0 0 24 24"><path d="M10.5 7.3 9 5.8c.9-.5 1.9-.8 3-.8 3.3 0 6 2.7 6 6v3.8l-2-2V11c0-2.2-1.8-4-4-4q-.75 0-1.5.3m9.6-2.5-1.4-1.4-2.1 2.1L18 6.9zm-.6 5.7v2h3v-2zm-15 0h-3v2h3zM2.4 1.7l19.7 19.7-1.3 1.3-.7-.7H4c0-1.1.9-2 2-2h12.1l-1-1H6v-8c0-.9.2-1.8.6-2.5L1.1 3zM8 17h7.1l-7-7c0 .3-.1.7-.1 1zm5-16h-2v3h2z"/></svg>

<svg xmlns="http://www.w3.org/2000/svg" id="mdi-alarm-light-off-outline" viewBox="0 0 24 24"><path d="M10.5 7.3L9 5.8C9.9 5.3 10.9 5 12 5C15.3 5 18 7.7 18 11V14.8L16 12.8V11C16 8.8 14.2 7 12 7C11.5 7 11 7.1 10.5 7.3M20.1 4.8L18.7 3.4L16.6 5.5L18 6.9L20.1 4.8M19.5 10.5V12.5H22.5V10.5H19.5M4.5 10.5H1.5V12.5H4.5V10.5M2.4 1.7L22.1 21.4L20.8 22.7L20.1 22H4C4 20.9 4.9 20 6 20H18.1L17.1 19H6V11C6 10.1 6.2 9.2 6.6 8.5L1.1 3L2.4 1.7M8 17H15.1L8.1 10C8.1 10.3 8 10.7 8 11V17M13 1H11V4H13V1Z" /></svg>
